src/icons/main-calendar.svg

<?xml version="1.0" encoding="UTF-8"?>
<svg width="14px" height="14px" viewBox="0 0 14 14" version="1.1" xmlns="http://www.w3.org/2000/svg" xmlns:xlink="http://www.w3.org/1999/xlink">
    <!-- Generator: Sketch 59 (86127) - https://sketch.com -->
    <title>HDL/Icon/Standard/calendar</title>
    <desc>Created with Sketch.</desc>
    <g id="Colors" stroke="none" stroke-width="1" fill="none" fill-rule="evenodd">
        <g id="Main-Icons" transform="translate(-621.000000, -406.000000)" fill="#4D5969">
            <g id="Calendar" transform="translate(600.000000, 388.000000)">
                <g id="HDL/Icon/Standard/calendar" transform="translate(21.000000, 18.000000)">
                    <path d="M10.8888889,3.11111111 C11.3555556,3.11111111 11.6666667,2.8 11.6666667,2.33333333 L11.6666667,0.777777778 C11.6666667,0.388888889 11.3555556,0 10.8888889,0 C10.4222222,0 10.1111111,0.388888889 10.1111111,0.777777778 L10.1111111,2.33333333 C10.1111111,2.8 10.4222222,3.11111111 10.8888889,3.11111111 Z M3.11111111,3.11111111 C3.57777778,3.11111111 3.88888889,2.8 3.88888889,2.33333333 L3.88888889,0.777777778 C3.88888889,0.388888889 3.57777778,0 3.11111111,0 C2.64444444,0 2.33333333,0.388888889 2.33333333,0.777777778 L2.33333333,2.33333333 C2.33333333,2.8 2.64444444,3.11111111 3.11111111,3.11111111 Z M13.2222222,1.55555556 L12.4444444,1.55555556 L12.4444444,2.33333333 C12.4444444,3.18888889 11.7444444,3.88888889 10.8888889,3.88888889 C10.0333333,3.88888889 9.33333333,3.18888889 9.33333333,2.33333333 L9.33333333,1.55555556 L4.66666667,1.55555556 L4.66666667,2.33333333 C4.66666667,3.18888889 3.96666667,3.88888889 3.11111111,3.88888889 C2.25555556,3.88888889 1.55555556,3.18888889 1.55555556,2.33333333 L1.55555556,1.55555556 L0.777777778,1.55555556 C0.388888889,1.55555556 0,1.94444444 0,2.33333333 L0,13.2222222 C0,13.6111111 0.388888889,14 0.777777778,14 L13.2222222,14 C13.6111111,14 14,13.6111111 14,13.2222222 L14,2.33333333 C14,1.94444444 13.6111111,1.55555556 13.2222222,1.55555556 Z M4.66666667,12.4444444 L1.55555556,12.4444444 L1.55555556,9.33333333 L4.66666667,9.33333333 L4.66666667,12.4444444 Z M4.66666667,8.55555556 L1.55555556,8.55555556 L1.55555556,5.44444444 L4.66666667,5.44444444 L4.66666667,8.55555556 Z M8.55555556,12.4444444 L5.44444444,12.4444444 L5.44444444,9.33333333 L8.55555556,9.33333333 L8.55555556,12.4444444 Z M8.55555556,8.55555556 L5.44444444,8.55555556 L5.44444444,5.44444444 L8.55555556,5.44444444 L8.55555556,8.55555556 Z M12.4444444,12.4444444 L9.33333333,12.4444444 L9.33333333,9.33333333 L12.4444444,9.33333333 L12.4444444,12.4444444 Z M12.4444444,8.55555556 L9.33333333,8.55555556 L9.33333333,5.44444444 L12.4444444,5.44444444 L12.4444444,8.55555556 Z" id="Shape"></path>
                </g>
            </g>
        </g>
    </g>
</svg>

<?xml version="1.0" encoding="utf-8"?>
<!-- Generator: Adobe Illustrator 20.1.0, SVG Export Plug-In . SVG Version: 6.00 Build 0)  -->
<svg version="1.1" id="Layer_1" xmlns="http://www.w3.org/2000/svg" xmlns:xlink="http://www.w3.org/1999/xlink" x="0px" y="0px"
	 viewBox="0 0 14 14" style="enable-background:new 0 0 14 14;" xml:space="preserve">
<style type="text/css">
	.st0{fill:#4D5969;}
</style>
<title>HDL/Icon/Standard/calendar</title>
<desc>Created with Sketch.</desc>
<g id="Colors">
	<g id="Main-Icons" transform="translate(-621.000000, -406.000000)">
		<g id="Calendar" transform="translate(600.000000, 388.000000)">
			<g id="HDL_x2F_Icon_x2F_Standard_x2F_calendar" transform="translate(21.000000, 18.000000)">
				<path id="Shape" class="st0" d="M10.9,3.1c0.5,0,0.8-0.3,0.8-0.8V0.8c0-0.4-0.3-0.8-0.8-0.8c-0.5,0-0.8,0.4-0.8,0.8v1.6
					C10.1,2.8,10.4,3.1,10.9,3.1z M3.1,3.1c0.5,0,0.8-0.3,0.8-0.8V0.8C3.9,0.4,3.6,0,3.1,0S2.3,0.4,2.3,0.8v1.6
					C2.3,2.8,2.6,3.1,3.1,3.1z M13.2,1.6h-0.8v0.8c0,0.9-0.7,1.6-1.6,1.6c-0.9,0-1.6-0.7-1.6-1.6V1.6H4.7v0.8c0,0.9-0.7,1.6-1.6,1.6
					S1.6,3.2,1.6,2.3V1.6H0.8C0.4,1.6,0,1.9,0,2.3v10.9C0,13.6,0.4,14,0.8,14h12.4c0.4,0,0.8-0.4,0.8-0.8V2.3
					C14,1.9,13.6,1.6,13.2,1.6z M4.7,12.4H1.6V9.3h3.1V12.4z M4.7,8.6H1.6V5.4h3.1V8.6z M8.6,12.4H5.4V9.3h3.1V12.4z M8.6,8.6H5.4
					V5.4h3.1V8.6z M12.4,12.4H9.3V9.3h3.1V12.4z M12.4,8.6H9.3V5.4h3.1V8.6z"/>
			</g>
		</g>
	</g>
</g>
</svg>
